X:1
T:[ID 1-139a]
T:[ID 1-139a]
T:Bezeichnung standardisiert: Menuett Menuet 15.
T:Urheber unbekannt Erstbeleg: 1773 (Datum in der schriftlichen Quelle) Datum in der hier transkribierten schriftlichen Quelle: 1775
C:Urheber unbekannt
C:Erstbeleg: 1773 (Datum in der schriftlichen Quelle)
C:Datum in der hier transkribierten schriftlichen Quelle: 1775
L:1/8
M:3/4
K:D
V:1 treble 
V:1
 D2 F2 A2 | F3 cde | f2 f2 df | e2 ce d2 | F3 EDE | FEFG F2 | cd e2 d2 | c6 :: C4 f2 | %9
 (fe)(ed) d2 | C4 e2 | (ed)(dc) c2 | G2 G2 G2 | F2 EG F2 | cedAFE | F6 :| %16

